lib/assets/images/send.svg

<svg width="16" height="16" viewBox="0 0 16 16" fill="none" xmlns="http://www.w3.org/2000/svg">
<path d="M5.48436 4.4095L7.83415 5.68166C8.0148 5.8623 8.04311 6.14523 7.90185 6.35808L3.14243 11.674C2.91772 12.0126 2.96278 12.4626 3.25015 12.75C3.53747 13.0372 3.98743 13.0822 4.32596 12.8576L9.6977 8.15475C9.91056 8.01349 10.1935 8.04181 10.3741 8.22245L11.5909 10.516C11.9858 10.911 12.6619 10.6505 12.6898 10.0927L12.9993 3.90179C13.0247 3.39421 12.6062 2.97572 12.0986 3.0011L5.90767 3.31064C5.34986 3.33853 5.08943 4.01459 5.48436 4.4095Z" fill="#3A83F1"/>
</svg>

<svg width="16" height="16" fill="none" xmlns="http://www.w3.org/2000/svg"><path d="M5.484 4.41l2.35 1.272c.18.18.21.463.068.676l-4.76 5.316a.854.854 0 0 0 1.184 1.184l5.372-4.703a.537.537 0 0 1 .676.067l1.217 2.294a.644.644 0 0 0 1.099-.423L13 3.902a.859.859 0 0 0-.901-.9l-6.191.309a.644.644 0 0 0-.424 1.099z" fill="#3A83F1"/></svg>
